X: 36638
T: Shane's Fancy
R: jig
M: 6/8
K: Gmajor
|:G2G d2d|efg f3|g2g c2e|dBG FED|
G2G d2d|efg f3|g2g c2e|dBG G3:|
|:b3 gab|a3 fga|g3 efg|f3 Bcd|
e2g d2g|c2g B2g|BAG FEF|G3G3:|

